img/icons/svg/icon__search.svg

<svg width="18" height="18" viewBox="0 0 18 18" fill="none" xmlns="http://www.w3.org/2000/svg">
<path d="M17.8901 16.8296L12.6613 11.6007C13.653 10.3764 14.25 8.81977 14.25 7.12503C14.25 3.19631 11.0537 0 7.12499 0C3.19627 0 0 3.19631 0 7.12503C0 11.0537 3.19631 14.2501 7.12503 14.2501C8.81977 14.2501 10.3764 13.653 11.6007 12.6613L16.8296 17.8902C16.9761 18.0366 17.2135 18.0366 17.36 17.8902L17.8902 17.3599C18.0366 17.2135 18.0366 16.976 17.8901 16.8296ZM7.12503 12.75C4.02322 12.75 1.50001 10.2268 1.50001 7.12503C1.50001 4.02322 4.02322 1.50001 7.12503 1.50001C10.2268 1.50001 12.75 4.02322 12.75 7.12503C12.75 10.2268 10.2268 12.75 7.12503 12.75Z" fill="black"/>
</svg>

<svg width="18" height="18" viewBox="0 0 18 18" fill="none" xmlns="http://www.w3.org/2000/svg"><path d="M17.89 16.83l-5.229-5.23a7.088 7.088 0 001.589-4.475A7.133 7.133 0 007.125 0C3.196 0 0 3.196 0 7.125s3.196 7.125 7.125 7.125a7.088 7.088 0 004.476-1.589l5.229 5.23a.375.375 0 00.53 0l.53-.531a.375.375 0 000-.53zM7.125 12.75A5.631 5.631 0 011.5 7.125 5.631 5.631 0 017.125 1.5a5.631 5.631 0 015.625 5.625 5.631 5.631 0 01-5.625 5.625z" fill="#000"/></svg>
